icons/square/48/phd2.svg

<?xml version="1.0" encoding="UTF-8" standalone="no"?>
<svg
   xmlns:dc="http://purl.org/dc/elements/1.1/"
   xmlns:cc="http://creativecommons.org/ns#"
   xmlns:rdf="http://www.w3.org/1999/02/22-rdf-syntax-ns#"
   xmlns:svg="http://www.w3.org/2000/svg"
   xmlns="http://www.w3.org/2000/svg"
   xmlns:sodipodi="http://sodipodi.sourceforge.net/DTD/sodipodi-0.dtd"
   xmlns:inkscape="http://www.inkscape.org/namespaces/inkscape"
   version="1.1"
   viewBox="0 0 48 48"
   id="svg50"
   sodipodi:docname="48.svg"
   inkscape:version="1.0.2 (e86c870879, 2021-01-15)">
  <metadata
     id="metadata54">
    <rdf:RDF>
      <cc:Work
         rdf:about="">
        <dc:format>image/svg+xml</dc:format>
        <dc:type
           rdf:resource="http://purl.org/dc/dcmitype/StillImage" />
        <dc:title></dc:title>
      </cc:Work>
    </rdf:RDF>
  </metadata>
  <sodipodi:namedview
     pagecolor="#ffffff"
     bordercolor="#666666"
     borderopacity="1"
     objecttolerance="10"
     gridtolerance="10"
     guidetolerance="10"
     inkscape:pageopacity="0"
     inkscape:pageshadow="2"
     inkscape:window-width="1920"
     inkscape:window-height="1046"
     id="namedview52"
     showgrid="false"
     inkscape:zoom="12.28598"
     inkscape:cx="24"
     inkscape:cy="24"
     inkscape:window-x="0"
     inkscape:window-y="34"
     inkscape:window-maximized="1"
     inkscape:current-layer="svg50" />
  <defs
     id="defs34">
    <linearGradient
       id="bg"
       x2="0"
       y1="1"
       y2="47"
       gradientUnits="userSpaceOnUse">
      <stop
         style="stop-color:#474747;stop-opacity:1"
         offset="0"
         id="stop29" />
      <stop
         style="stop-color:#3d3d3d;stop-opacity:1"
         offset="1"
         id="stop31" />
    </linearGradient>
  </defs>
  <path
     d="m1 43v0.25c0 2.216 1.784 4 4 4h38c2.216 0 4-1.784 4-4v-0.25c0 2.216-1.784 4-4 4h-38c-2.216 0-4-1.784-4-4zm0 0.5v0.5c0 2.216 1.784 4 4 4h38c2.216 0 4-1.784 4-4v-0.5c0 2.216-1.784 4-4 4h-38c-2.216 0-4-1.784-4-4z"
     style="opacity:.02"
     id="path36" />
  <path
     d="m1 43.25v0.25c0 2.216 1.784 4 4 4h38c2.216 0 4-1.784 4-4v-0.25c0 2.216-1.784 4-4 4h-38c-2.216 0-4-1.784-4-4z"
     style="opacity:.05"
     id="path38" />
  <path
     d="m1 43v0.25c0 2.216 1.784 4 4 4h38c2.216 0 4-1.784 4-4v-0.25c0 2.216-1.784 4-4 4h-38c-2.216 0-4-1.784-4-4z"
     style="opacity:.1"
     id="path40" />
  <rect
     x="1"
     y="1"
     width="46"
     height="46"
     rx="4"
     style="fill:url(#bg)"
     id="rect42" />
  <path
     d="m1 39v4c0 2.216 1.784 4 4 4h38c2.216 0 4-1.784 4-4v-4c0 2.216-1.784 4-4 4h-38c-2.216 0-4-1.784-4-4z"
     style="opacity:.1"
     id="path44" />
  <path
     id="path1451"
     style="opacity:0.1;fill:#000000;fill-opacity:1;stroke-width:2;stroke-linecap:square;stroke-linejoin:round;stroke-opacity:0.761636"
     d="M 22.999797,9.0334 A 15,15 0 0 0 9.033,23.0002 h 9.050781 a 6,6 0 0 1 4.916016,-4.91602 z m 2,0 v 9.05078 a 6,6 0 0 1 4.916016,4.91602 h 9.050781 A 15,15 0 0 0 24.999797,9.0334 Z M 9.033,25.0002 A 15,15 0 0 0 22.999797,38.967 V 29.91622 A 6,6 0 0 1 18.083781,25.0002 Z m 20.882813,0 a 6,6 0 0 1 -4.916016,4.91602 V 38.967 A 15,15 0 0 0 38.966594,25.0002 Z" />
  <path
     id="path839"
     style="fill:#40bf51;fill-opacity:1;stroke-width:2;stroke-linecap:square;stroke-linejoin:round;stroke-opacity:0.761636"
     d="M 22.999797,8.0334 A 15,15 0 0 0 9.033,22.0002 h 9.050781 a 6,6 0 0 1 4.916016,-4.91602 z m 2,0 v 9.05078 a 6,6 0 0 1 4.916016,4.91602 h 9.050781 A 15,15 0 0 0 24.999797,8.0334 Z M 9.033,24.0002 A 15,15 0 0 0 22.999797,37.967 V 28.91622 A 6,6 0 0 1 18.083781,24.0002 Z m 20.882813,0 a 6,6 0 0 1 -4.916016,4.91602 V 37.967 A 15,15 0 0 0 38.966594,24.0002 Z" />
</svg>

<svg version="1.1" viewBox="0 0 48 48" xmlns="http://www.w3.org/2000/svg">
 <defs>
  <linearGradient id="bg" x2="0" y1="1" y2="47" gradientUnits="userSpaceOnUse">
   <stop style="stop-color:#474747" offset="0"/>
   <stop style="stop-color:#3d3d3d" offset="1"/>
  </linearGradient>
 </defs>
 <path d="m1 43v0.25c0 2.216 1.784 4 4 4h38c2.216 0 4-1.784 4-4v-0.25c0 2.216-1.784 4-4 4h-38c-2.216 0-4-1.784-4-4zm0 0.5v0.5c0 2.216 1.784 4 4 4h38c2.216 0 4-1.784 4-4v-0.5c0 2.216-1.784 4-4 4h-38c-2.216 0-4-1.784-4-4z" style="opacity:.02"/>
 <path d="m1 43.25v0.25c0 2.216 1.784 4 4 4h38c2.216 0 4-1.784 4-4v-0.25c0 2.216-1.784 4-4 4h-38c-2.216 0-4-1.784-4-4z" style="opacity:.05"/>
 <path d="m1 43v0.25c0 2.216 1.784 4 4 4h38c2.216 0 4-1.784 4-4v-0.25c0 2.216-1.784 4-4 4h-38c-2.216 0-4-1.784-4-4z" style="opacity:.1"/>
 <rect x="1" y="1" width="46" height="46" rx="4" style="fill:url(#bg)"/>
 <path d="m1 39v4c0 2.216 1.784 4 4 4h38c2.216 0 4-1.784 4-4v-4c0 2.216-1.784 4-4 4h-38c-2.216 0-4-1.784-4-4z" style="opacity:.1"/>
 <path d="m23 9.0334a15 15 0 0 0-13.967 13.967h9.0508a6 6 0 0 1 4.916-4.916zm2 0v9.0508a6 6 0 0 1 4.916 4.916h9.0508a15 15 0 0 0-13.967-13.967zm-15.967 15.967a15 15 0 0 0 13.967 13.967v-9.0508a6 6 0 0 1-4.916-4.916zm20.883 0a6 6 0 0 1-4.916 4.916v9.0508a15 15 0 0 0 13.967-13.967z" style="opacity:.1"/>
 <path d="m23 8.0334a15 15 0 0 0-13.967 13.967h9.0508a6 6 0 0 1 4.916-4.916zm2 0v9.0508a6 6 0 0 1 4.916 4.916h9.0508a15 15 0 0 0-13.967-13.967zm-15.967 15.967a15 15 0 0 0 13.967 13.967v-9.0508a6 6 0 0 1-4.916-4.916zm20.883 0a6 6 0 0 1-4.916 4.916v9.0508a15 15 0 0 0 13.967-13.967z" style="fill:#40bf51"/>
</svg>
